ion/print.svg

<svg viewBox="0 0 512 512" xmlns="http://www.w3.org/2000/svg"><g><path d="M408 112H106v0c-32.04 0-58 25.96-58 58v158 0c0 30.92 25.07 56 56 56h8v39.68h0c0 22.26 18.05 40.32 40.32 40.32h207.36v0c22.26 0 40.32-18.06 40.32-40.32V384h8v0c30.92 0 56-25.08 56-56V168v0c0-30.93-25.08-56-56-56Zm-40 311.68v0c-.02 4.58-3.74 8.3-8.32 8.32H152.32v0c-4.59-.02-8.31-3.74-8.32-8.32V264.32v0c.01-4.59 3.73-8.31 8.32-8.32h207.36v0c4.58.01 8.3 3.73 8.32 8.32Zm26-215.76h-.001c-13.22 1.06-24.79-8.79-25.85-22 -1.07-13.22 8.78-24.79 22-25.85 13.21-1.07 24.78 8.78 25.84 22 .1 1.27.1 2.56 0 3.84v0c-.95 11.73-10.27 21.05-22 22Z"/><path d="M344 48H168v-.001c-27.83.04-51.41 20.46-55.42 48h286.84v-.001c-4.02-27.54-27.6-47.96-55.42-48Z"/></g></svg>

<svg xmlns="http://www.w3.org/2000/svg" width="512" height="512" viewBox="0 0 512 512"><path d="M408,112H106a58,58,0,0,0-58,58V328a56,56,0,0,0,56,56h8v39.68A40.32,40.32,0,0,0,152.32,464H359.68A40.32,40.32,0,0,0,400,423.68V384h8a56,56,0,0,0,56-56V168A56,56,0,0,0,408,112ZM368,423.68a8.35,8.35,0,0,1-8.32,8.32H152.32a8.35,8.35,0,0,1-8.32-8.32V264.32a8.35,8.35,0,0,1,8.32-8.32H359.68a8.35,8.35,0,0,1,8.32,8.32ZM394,207.92a24,24,0,1,1,22-22A24,24,0,0,1,394,207.92Z"/><path d="M344,48H168a56.09,56.09,0,0,0-55.42,48H399.42A56.09,56.09,0,0,0,344,48Z"/></svg>
